**kern	**kern	**dynam
*part1	*part1	*part1
*staff2	*staff1	*
*I"Piano	*	*
*clefF4	*clefG2	*
*k[]	*k[]	*
*M3/4	*M3/4	*
=1	=1	=1
*	*^	*
!	!	!	!LO:DY:a
2.C 2.G 2.c	(4.g	2.e 2.g	p
.	8eeL	.	.
.	8dd	.	.
.	8ccJ)	.	.
=	=	=	=
[2D [2G [2B	(8.gL	[2f	.
.	32bLL	.	.
.	32aJJJ	.	.
.	4..g)	.	.
8.DL] 8.G] 8.B]	.	8.fL]	.
16DJk 16G 16B	16g	16fJk	.
=	=	=	=
4E 4G 4c	(8gL	4e	.
.	8ccJ)	.	.
4F 4A 4c	(8dL	4d	.
.	8aJ)	.	.
4GG 4G	(8dL	4B	.
.	8gJ)	.	.
=	=	=	=
*^	*	*	*
2C 2G	4ryy	2c 2e	4ryy	.
.	4rA	.	4rff	.
*v	*v	*	*	*
*	*v	*v	*
=!|:	=!|:	=!|:
8ryy	8ryy	.
=!|:	=!|:	=!|:
8ryy	8ryy	.
=	=	=
((2.C 2.G	((2.c 2.e	p
=	=	=
*-	*-	*-
!!!system-decoration: {(s1,s2)}
